assets/images/logo-svg.svg

<?xml version="1.0" encoding="UTF-8" standalone="no"?>
<svg
   viewBox="-2 0 141.5 141.46011"
   version="1.1"
   id="svg11"
   sodipodi:docname="logo-svg.svg"
   width="141.5"
   height="141.46011"
   inkscape:version="1.4.2 (f4327f4, 2025-05-13)"
   xmlns:inkscape="http://www.inkscape.org/namespaces/inkscape"
   xmlns:sodipodi="http://sodipodi.sourceforge.net/DTD/sodipodi-0.dtd"
   xmlns:xlink="http://www.w3.org/1999/xlink"
   xmlns="http://www.w3.org/2000/svg"
   xmlns:svg="http://www.w3.org/2000/svg">
  <defs
     id="defs11" />
  <sodipodi:namedview
     id="namedview11"
     pagecolor="#ffffff"
     bordercolor="#000000"
     borderopacity="0.25"
     inkscape:showpageshadow="2"
     inkscape:pageopacity="0.0"
     inkscape:pagecheckerboard="0"
     inkscape:deskcolor="#d1d1d1"
     inkscape:zoom="3.7492373"
     inkscape:cx="122.29154"
     inkscape:cy="40.67494"
     inkscape:window-width="2400"
     inkscape:window-height="1411"
     inkscape:window-x="-9"
     inkscape:window-y="-9"
     inkscape:window-maximized="1"
     inkscape:current-layer="g11" />
  <text
     x="178.75"
     y="-6.7898865"
     font-size="83px"
     fill-opacity="0"
     font-family="Trebuchet"
     font-weight="bold"
     id="text2">SVG</text>
  <g
     shape-rendering="geometricPrecision"
     text-rendering="geometricPrecision"
     image-rendering="optimizeQuality"
     id="g11"
     transform="translate(-1.25,-81.789886)">
    <g
       id="logo"
       transform="matrix(0.5,0,0,0.5,-5,77.5)">
      <defs
         id="defs6">
        <g
           id="SVG"
           fill="#ffffff"
           transform="matrix(2,0,0,2,40,158)">
          <path
             id="S"
             d="M 5.482,31.319 C 2.163,28.001 0.109,23.419 0.109,18.358 0.109,8.232 8.322,0.024 18.443,0.024 c 10.126,0 18.339,8.208 18.339,18.334 h -10.74 c 0,-4.194 -3.404,-7.593 -7.599,-7.593 -4.194,0 -7.593,3.399 -7.593,7.593 0,2.095 0.851,3.993 2.22,5.363 h 0.005 c 1.375,1.38 2.52,1.779 5.368,2.231 v 0 c 5.066,0.527 9.648,2.054 12.966,5.372 v 0 c 3.319,3.319 5.373,7.901 5.373,12.962 0,10.126 -8.213,18.339 -18.339,18.339 C 8.322,62.625 0.109,54.412 0.109,44.286 H 10.85 c 0,4.194 3.399,7.598 7.593,7.598 4.195,0 7.599,-3.404 7.599,-7.598 0,-2.095 -0.851,-3.988 -2.221,-5.363 H 23.816 C 22.441,37.548 20.468,37.074 18.443,36.697 V 36.692 C 13.533,35.939 8.8,34.638 5.482,31.319 Z" />
          <path
             id="V"
             d="M 73.452,0.024 60.482,62.625 H 49.742 L 36.782,0.024 h 10.74 l 7.6,36.663 7.59,-36.663 z" />
          <path
             id="G"
             d="m 91.792,25.952 h 18.334 v 18.334 h 0.005 c 0,10.127 -8.213,18.34 -18.339,18.34 -10.127,0 -18.334,-8.213 -18.334,-18.34 v 0 -25.927 h -0.005 c 0,-10.126 8.212,-18.334 18.339,-18.334 10.121,0 18.334,8.208 18.334,18.334 H 99.385 c 0,-4.19 -3.404,-7.594 -7.593,-7.594 -4.195,0 -7.594,3.404 -7.594,7.594 v 25.927 0 c 0,4.195 3.399,7.594 7.594,7.594 4.189,0 7.588,-3.399 7.593,-7.589 v -0.005 -7.588 h -7.593 z" />
        </g>
      </defs>
      <path
         id="base"
         fill="#000000"
         d="m 8.5,150 h 283 v 100 c 0,23.5 -18,41.5 -41.5,41.5 H 50 C 26.5,291.5 8.5,273.5 8.5,250 Z" />
      <g
         stroke-width="38.0086"
         stroke="#000000"
         id="g8">
        <g
           id="svgstar"
           transform="translate(150,150)">
          <path
             id="svgbar"
             fill="#ffb13b"
             d="m -84.1487,-15.8513 a 22.4171,22.4171 0 1 0 0,31.7026 H 84.1487 a 22.4171,22.4171 0 1 0 0,-31.7026 z" />
          <use
             xlink:href="#svgbar"
             transform="rotate(45)"
             id="use6" />
          <use
             xlink:href="#svgbar"
             transform="rotate(90)"
             id="use7" />
          <use
             xlink:href="#svgbar"
             transform="rotate(135)"
             id="use8" />
        </g>
      </g>
      <use
         xlink:href="#svgstar"
         id="use9" />
      <use
         xlink:href="#base"
         opacity="0.85"
         id="use10" />
      <use
         xlink:href="#SVG"
         id="use11" />
    </g>
  </g>
</svg>

<svg xmlns="http://www.w3.org/2000/svg" xmlns:xlink="http://www.w3.org/1999/xlink" viewBox="-2 0 225 225">
  <text x="0" y="75" font-size="83" fill-opacity="0" font-family="Trebuchet" letter-spacing="-12">W3C</text>
  <text x="180" y="75" font-size="83" fill-opacity="0" font-family="Trebuchet" font-weight="bold">SVG</text>
  <g shape-rendering="geometricPrecision" text-rendering="geometricPrecision" image-rendering="optimizeQuality">
    <g id="w3c-logo">
      <g>
        <title>W3</title>
        <path d="M33.695,10.802l12.062,41.016l12.067-41.016h8.731L46.587,78.188h-0.831l-12.48-41.759L20.797,78.188     h-0.832L0,10.802h8.736l12.061,41.016l8.154-27.618l-3.993-13.397H33.695z" fill="#005A9C" />
        <path d="M91.355,56.557c0,6.104-1.624,11.234-4.862,15.394c-3.248,4.158-7.45,6.237-12.607,6.237     c-3.882,0-7.263-1.238-10.148-3.702c-2.885-2.47-5.02-5.812-6.406-10.022l6.82-2.829c1.001,2.552,2.317,4.562,3.953,6.028     c1.636,1.469,3.56,2.207,5.781,2.207c2.329,0,4.3-1.306,5.909-3.911c1.609-2.606,2.411-5.738,2.411-9.401     c0-4.049-0.861-7.179-2.582-9.399c-1.995-2.604-5.129-3.912-9.397-3.912h-3.327v-3.991l11.646-20.133H64.484l-3.911,6.655h-2.493     V10.802h32.441v4.075l-12.31,21.217c4.324,1.385,7.596,3.911,9.815,7.571C90.246,47.324,91.355,51.618,91.355,56.557z" fill="#005A9C" />
      </g>
      <g>
        <title>C</title>
        <path d="M125.211,10.425l1.414,8.6l-5.008,9.583c0,0-1.924-4.064-5.117-6.314     c-2.693-1.899-4.447-2.309-7.186-1.746c-3.527,0.73-7.516,4.938-9.258,10.13c-2.084,6.21-2.104,9.218-2.178,11.978     c-0.115,4.428,0.58,7.043,0.58,7.043s-3.04-5.626-3.011-13.866c0.018-5.882,0.947-11.218,3.666-16.479     c2.396-4.627,5.95-7.404,9.109-7.728c3.264-0.343,5.848,1.229,7.841,2.938c2.089,1.788,4.213,5.698,4.213,5.698L125.211,10.425z" fill="#221B0A" />
        <path d="M125.823,59.099c0,0-2.208,3.957-3.589,5.48c-1.379,1.524-3.849,4.209-6.896,5.555     c-3.049,1.343-4.646,1.598-7.661,1.306c-3.01-0.29-5.807-2.032-6.786-2.764c-0.979-0.722-3.486-2.864-4.897-4.854     c-1.42-2-3.634-5.995-3.634-5.995s1.233,4.001,2.007,5.699c0.442,0.977,1.81,3.965,3.749,6.572     c1.805,2.425,5.315,6.604,10.652,7.545c5.336,0.945,9.002-1.449,9.907-2.031c0.907-0.578,2.819-2.178,4.032-3.475     c1.264-1.351,2.459-3.079,3.116-4.108c0.487-0.758,1.276-2.286,1.276-2.286L125.823,59.099z" fill="#221B0A" />
      </g>
      <g>
        <title>Registered Trademark</title>
        <path d="M132.592,5.201c2.493,0,4.485,2.032,4.485,4.525c0,2.533-1.992,4.543-4.505,4.543    c-2.491,0-4.524-2.01-4.524-4.543c0-2.493,2.033-4.525,4.524-4.525H132.592z M132.554,6.107c-1.889,0-3.417,1.629-3.417,3.639    c0,2.029,1.528,3.619,3.436,3.619c1.912,0.019,3.46-1.59,3.46-3.619c0-2.01-1.548-3.639-3.46-3.639H132.554z M131.791,12.361    h-1.067V7.332c0.401-0.058,0.846-0.141,1.61-0.141c0.862,0,1.387,0.141,1.726,0.404c0.28,0.221,0.445,0.563,0.445,1.085    c0,0.603-0.423,1.024-0.966,1.166v0.042c0.441,0.078,0.724,0.479,0.801,1.226c0.103,0.783,0.203,1.085,0.284,1.247h-1.104    c-0.123-0.183-0.203-0.625-0.305-1.31c-0.077-0.542-0.4-0.763-0.942-0.763h-0.481V12.361z M131.791,9.463h0.5    c0.624,0,1.105-0.199,1.105-0.723c0-0.421-0.301-0.744-1.025-0.744c-0.261,0-0.441,0-0.58,0.021V9.463z" fill="#221B0A" />
      </g>
    </g>
    <g id="logo" transform="scale(0.5) translate(-10, 155)">
      <defs>
        <g id="SVG" fill="#ffffff" transform="scale(2) translate(20,79)">
          <path id="S" d="M 5.482,31.319 C2.163,28.001 0.109,23.419 0.109,18.358 C0.109,8.232 8.322,0.024 18.443,0.024 C28.569,0.024 36.782,8.232 36.782,18.358 L26.042,18.358 C26.042,14.164 22.638,10.765 18.443,10.765 C14.249,10.765 10.850,14.164 10.850,18.358 C10.850,20.453 11.701,22.351 13.070,23.721 L13.075,23.721 C14.450,25.101 15.595,25.500 18.443,25.952 L18.443,25.952 C23.509,26.479 28.091,28.006 31.409,31.324 L31.409,31.324 C34.728,34.643 36.782,39.225 36.782,44.286 C36.782,54.412 28.569,62.625 18.443,62.625 C8.322,62.625 0.109,54.412 0.109,44.286 L10.850,44.286 C10.850,48.480 14.249,51.884 18.443,51.884 C22.638,51.884 26.042,48.480 26.042,44.286 C26.042,42.191 25.191,40.298 23.821,38.923 L23.816,38.923 C22.441,37.548 20.468,37.074 18.443,36.697 L18.443,36.692 C13.533,35.939 8.800,34.638 5.482,31.319 L5.482,31.319 L5.482,31.319 Z" />
          <path id="V" d="M 73.452,0.024 L60.482,62.625 L49.742,62.625 L36.782,0.024 L47.522,0.024 L55.122,36.687 L62.712,0.024 L73.452,0.024 Z" />
          <path id="G" d="M 91.792,25.952 L110.126,25.952 L110.126,44.286 L110.131,44.286 C110.131,54.413 101.918,62.626 91.792,62.626 C81.665,62.626 73.458,54.413 73.458,44.286 L73.458,44.286 L73.458,18.359 L73.453,18.359 C73.453,8.233 81.665,0.025 91.792,0.025 C101.913,0.025 110.126,8.233 110.126,18.359 L99.385,18.359 C99.385,14.169 95.981,10.765 91.792,10.765 C87.597,10.765 84.198,14.169 84.198,18.359 L84.198,44.286 L84.198,44.286 C84.198,48.481 87.597,51.880 91.792,51.880 C95.981,51.880 99.380,48.481 99.385,44.291 L99.385,44.286 L99.385,36.698 L91.792,36.698 L91.792,25.952 L91.792,25.952 Z" />
        </g>
      </defs>
      <path id="base" fill="#000" d="M8.5,150 H291.5 V250 C291.5,273.5 273.5,291.5 250,291.5 H50 C26.5,291.5 8.5,273.5 8.5,250 Z" />
      <g stroke-width="38.0086" stroke="#000">
        <g id="svgstar" transform="translate(150, 150)">
          <path id="svgbar" fill="#ffb13b" d="M-84.1487,-15.8513 a22.4171,22.4171 0 1 0 0,31.7026 h168.2974 a22.4171,22.4171 0 1 0 0,-31.7026 Z" />
          <use xlink:href="#svgbar" transform="rotate(45)" />
          <use xlink:href="#svgbar" transform="rotate(90)" />
          <use xlink:href="#svgbar" transform="rotate(135)" />
        </g>
      </g>
      <use xlink:href="#svgstar" />
      <use xlink:href="#base" opacity="0.85" />
      <use xlink:href="#SVG" />
    </g>
  </g>
</svg>
